assets/symbols/mulberry/sun.svg

<svg height="850.394" viewBox="0 0 850.394 850.394" width="850.394" xmlns="http://www.w3.org/2000/svg"><path d="m425.58 252.32c95.63 0 173.14 77.51 173.14 173.13 0 95.63-77.51 173.14-173.14 173.14-95.62 0-173.13-77.51-173.13-173.14 0-95.62 77.51-173.13 173.13-173.13z" fill="#fbed24"/><g fill="none"><path d="m598.72 425.45c0 95.63-77.51 173.14-173.14 173.14-95.62 0-173.13-77.51-173.13-173.14 0-95.62 77.51-173.13 173.13-173.13 95.63 0 173.14 77.51 173.14 173.13zm-174.49-204.65v-131.72m-105.05 157.35-72.76-109.79m-2.67 190.73-119.33-55.77m408.61-27.26 72.75-109.8m2.66 190.73 119.33-55.76m-199.08 336.41 72.79 109.79m2.64-190.73 119.33 55.76m-408.6 27.28-72.76 109.78m-2.66-190.71-119.33 55.76m99.13-155.36h-131.71m674.09 0h-131.72m-205.66 331.62v-131.72" stroke="#231f20" stroke-width="28"/><path d="m0 0h850.394v850.394h-850.394z"/></g></svg>

<svg xmlns="http://www.w3.org/2000/svg" width="850.394" height="850.394" viewBox="0 0 850.394 850.394" overflow="visible"><path d="M425.58 252.32c95.63 0 173.14 77.51 173.14 173.13 0 95.63-77.51 173.14-173.14 173.14-95.62 0-173.13-77.51-173.13-173.14 0-95.62 77.51-173.13 173.13-173.13z" fill="#fbed24"/><g fill="none" stroke="#231f20" stroke-width="28"><path d="M598.72 425.45c0 95.63-77.51 173.14-173.14 173.14-95.62 0-173.13-77.51-173.13-173.14 0-95.62 77.51-173.13 173.13-173.13 95.63 0 173.14 77.51 173.14 173.13zM424.23 220.8V89.08M319.18 246.43l-72.76-109.79M243.75 327.37L124.42 271.6M533.03 244.34l72.75-109.8M608.44 325.27l119.33-55.76M528.69 605.92l72.79 109.79M604.12 524.98l119.33 55.76M314.85 608.02L242.09 717.8M239.43 527.09L120.1 582.85M219.23 427.49H87.52M761.61 427.49H629.89M424.23 759.11V627.39"/></g><path fill="none" d="M0 0h850.394v850.394H0z"/></svg>
